icons/op-triangle-delta-16.svg

<svg width="16" height="16" viewBox="0 0 16 16" fill="none" xmlns="http://www.w3.org/2000/svg">
<path fill-rule="evenodd" clip-rule="evenodd" d="M8.22585 3.64884C8.12938 3.47083 7.87064 3.47083 7.77417 3.64885L2.56914 12.113C2.47797 12.2813 2.60157 12.4847 2.79498 12.4847H13.205C13.3985 12.4847 13.522 12.2813 13.4309 12.113L8.22585 3.64884ZM6.41916 2.93455C7.09443 1.68849 8.9056 1.68848 9.58087 2.93455L14.7859 11.3988C15.4241 12.5764 14.5589 14 13.205 14H2.79498C1.44109 14 0.57593 12.5764 1.21413 11.3988L6.41916 2.93455Z" fill="#1F2328"/>
</svg>

<svg xmlns="http://www.w3.org/2000/svg" width="16" height="16" viewBox="0 0 16 16"><path d="M6.419 2.935c.675-1.247 2.487-1.247 3.162 0l5.205 8.464c.638 1.177-.227 2.601-1.581 2.601H2.795c-1.354 0-2.219-1.424-1.581-2.601Zm1.807.714a.258.258 0 0 0-.452 0l-5.205 8.464a.253.253 0 0 0 .226.372h10.41a.253.253 0 0 0 .226-.372Z"/></svg>
